src/lib/packages/icons/src/assets/line/key-circle.svg

<svg width="24" height="24" viewBox="0 0 24 24" fill="none" xmlns="http://www.w3.org/2000/svg">
<path d="M13.5 6.75C11.433 6.75 9.75 8.432 9.75 10.5C9.75 10.714 9.76896 10.927 9.80396 11.135L6.96997 13.969C6.82897 14.11 6.75 14.301 6.75 14.499V16.499C6.75 16.913 7.086 17.249 7.5 17.249H9.5C9.914 17.249 10.25 16.913 10.25 16.499V15.749H11C11.199 15.749 11.39 15.6701 11.53 15.5291L12.865 14.1951C13.073 14.2311 13.286 14.249 13.5 14.249C15.567 14.249 17.25 12.567 17.25 10.499C17.25 8.43102 15.567 6.75 13.5 6.75ZM13.5 12.75C13.277 12.75 13.0591 12.7171 12.8511 12.6531C12.5871 12.5701 12.2961 12.6431 12.1001 12.8401L10.6899 14.25H9.50098C9.08698 14.25 8.75098 14.586 8.75098 15V15.75H8.25098V14.811L11.1609 11.9009C11.3569 11.7039 11.4299 11.4149 11.3479 11.1489C11.2839 10.9419 11.251 10.724 11.251 10.501C11.251 9.25998 12.261 8.25098 13.501 8.25098C14.741 8.25098 15.751 9.25998 15.751 10.501C15.751 11.742 14.74 12.75 13.5 12.75ZM14.77 10C14.77 10.414 14.435 10.75 14.02 10.75C13.606 10.75 13.2649 10.414 13.2649 10C13.2649 9.586 13.596 9.25 14.01 9.25H14.02C14.435 9.25 14.77 9.586 14.77 10ZM12 1.25C6.072 1.25 1.25 6.072 1.25 12C1.25 17.928 6.072 22.75 12 22.75C17.928 22.75 22.75 17.928 22.75 12C22.75 6.072 17.928 1.25 12 1.25ZM12 21.25C6.899 21.25 2.75 17.101 2.75 12C2.75 6.899 6.899 2.75 12 2.75C17.101 2.75 21.25 6.899 21.25 12C21.25 17.101 17.101 21.25 12 21.25Z" fill="currentColor"/>
</svg>

<svg xmlns="http://www.w3.org/2000/svg" width="24" height="24" fill="none"><path fill="currentColor" d="M13.5 6.75a3.755 3.755 0 0 0-3.696 4.385L6.97 13.969a.75.75 0 0 0-.22.53v2c0 .414.336.75.75.75h2a.75.75 0 0 0 .75-.75v-.75H11c.199 0 .39-.079.53-.22l1.335-1.334A3.755 3.755 0 0 0 17.25 10.5a3.754 3.754 0 0 0-3.75-3.75Zm0 6c-.223 0-.44-.033-.649-.097a.747.747 0 0 0-.75.187l-1.411 1.41H9.5a.75.75 0 0 0-.75.75v.75h-.5v-.939l2.91-2.91a.752.752 0 0 0 .187-.752A2.253 2.253 0 0 1 13.5 8.25c1.24 0 2.25 1.009 2.25 2.25a2.253 2.253 0 0 1-2.25 2.25ZM14.77 10a.75.75 0 0 1-.75.75.755.755 0 0 1-.755-.75c0-.414.331-.75.745-.75h.01a.75.75 0 0 1 .75.75ZM12 1.25C6.072 1.25 1.25 6.072 1.25 12S6.072 22.75 12 22.75 22.75 17.928 22.75 12 17.928 1.25 12 1.25Zm0 20c-5.101 0-9.25-4.149-9.25-9.25S6.899 2.75 12 2.75s9.25 4.149 9.25 9.25-4.149 9.25-9.25 9.25Z"/></svg>
